packages/foundations/assets/icons/functional/images/transportation/pedestrian_28.svg

<svg width="28" height="28" viewBox="0 0 28 28" fill="none" xmlns="http://www.w3.org/2000/svg">
<g clip-path="url(#clip0_187_918)">
<path fill-rule="evenodd" clip-rule="evenodd" d="M8.17987 25.3631C8.17987 25.2523 8.20763 25.1414 8.26297 25.0028L11.08 18.668C11.2187 18.3354 11.5512 18.1415 11.8838 18.1415C12.4104 18.1415 12.7707 18.5849 12.7707 19.0283C12.7707 19.1392 12.7429 19.2501 12.6875 19.3609L9.87053 25.6957C9.73191 26.0283 9.39933 26.25 9.06675 26.25C8.54021 26.25 8.17987 25.8343 8.17987 25.3631ZM8.37383 13.8337L8.7896 11.09C8.84503 10.7851 9.03899 10.5357 9.3439 10.4248L12.9439 8.57381C13.2487 8.46295 13.4982 8.40752 13.7199 8.40752C14.385 8.40752 14.7176 8.87872 14.6899 9.54388L14.0832 15.8292L17.2426 18.9887C17.3535 19.0995 17.4367 19.2381 17.4921 19.4045L18.9055 25.1677C19.0441 25.722 18.6284 26.2763 18.0464 26.2485C17.6584 26.2485 17.2981 25.9991 17.2149 25.5833L15.8292 20.0419L12.6143 16.8547C12.4203 16.6606 12.2539 16.3281 12.3094 15.94L12.8608 10.5139L10.4525 11.866L10.0922 14.1109C10.0367 14.5266 9.67648 14.8592 9.23304 14.8592C8.70641 14.8592 8.29073 14.3603 8.37383 13.8337ZM14.3524 1.75C15.8016 1.75 16.9774 2.92573 16.9774 4.37507C16.9774 5.79691 15.8016 7.00005 14.3524 7.00005C12.9031 7.00005 11.7274 5.82432 11.7274 4.37507C11.7274 2.92573 12.9031 1.75 14.3524 1.75ZM14.3761 3.52376C13.884 3.52376 13.5011 3.90662 13.5011 4.39875C13.5011 4.86365 13.884 5.27374 14.3761 5.27374C14.841 5.27374 15.2511 4.86365 15.2511 4.39875C15.2511 3.90662 14.841 3.52376 14.3761 3.52376ZM15.282 11.2359C15.282 10.7648 15.67 10.3767 16.1411 10.3767C16.3906 10.3767 16.6123 10.4599 16.7786 10.6262L17.603 11.4502L19.3489 12.3094C19.6539 12.4756 19.8201 12.7805 19.8201 13.1131C19.8201 13.5842 19.4321 13.9723 18.961 13.9723C18.8224 13.9723 18.6838 13.9446 18.5453 13.8891L16.7161 12.9468C16.633 12.9191 16.5498 12.8637 16.4944 12.8082L15.5591 11.8734C15.3929 11.707 15.282 11.4853 15.282 11.2359Z" fill="#1A1C1F"/>
</g>
<defs>
<clipPath id="clip0_187_918">
<rect width="28" height="28" fill="white"/>
</clipPath>
</defs>
</svg>

<svg xmlns="http://www.w3.org/2000/svg" width="28" height="28" fill="none"><g clip-path="url(#a)"><path fill="#1A1C1F" fill-rule="evenodd" d="M8.18 25.363c0-.11.028-.222.083-.36l2.817-6.335a.87.87 0 0 1 .804-.526c.526 0 .887.443.887.886q0 .166-.084.333l-2.816 6.335a.9.9 0 0 1-.804.554.875.875 0 0 1-.887-.887m.194-11.53.416-2.743a.85.85 0 0 1 .554-.665l3.6-1.851c.305-.111.554-.166.776-.166.665 0 .998.47.97 1.136l-.607 6.285 3.16 3.16q.166.166.25.415l1.413 5.764c.138.554-.278 1.108-.86 1.08a.83.83 0 0 1-.831-.665l-1.386-5.541-3.215-3.187a1.09 1.09 0 0 1-.305-.915l.552-5.426-2.408 1.352-.36 2.245a.87.87 0 0 1-.86.748c-.527 0-.942-.499-.86-1.025M14.352 1.75a2.626 2.626 0 0 1 2.625 2.625C16.977 5.797 15.802 7 14.352 7a2.626 2.626 0 0 1 0-5.25m.024 1.774a.864.864 0 0 0-.875.875c0 .465.383.875.875.875a.9.9 0 0 0 .875-.875.88.88 0 0 0-.875-.875m.906 7.712c0-.471.388-.86.86-.86.249 0 .47.084.637.25l.824.824 1.746.86a.9.9 0 0 1 .471.803c0 .471-.388.86-.859.86a1.1 1.1 0 0 1-.416-.084l-1.829-.942a.6.6 0 0 1-.222-.139l-.935-.935a.9.9 0 0 1-.277-.637" clip-rule="evenodd"/></g><defs><clipPath id="a"><path fill="#fff" d="M0 0h28v28H0z"/></clipPath></defs></svg>
